X:95
T:[untitled]
Z:Jack Campin - http://www.campin.me.uk
S:Blaikie MS (NLS MS.1578) p28, Blaikie #89
M:2/4
L:1/8
V:1 midi program 1 74
V:2 midi program 1 46 bass middle = d transpose -24
Q:1/4=90
N:bar 2 melody has an F2 written stem-down as if |F2 c2| were alternate
K:F
[V:1] C|FA`FA|F/G/A/B/ c2   |F<F f>c|d2 cd/e/|
[V:2] z|f2 c2|f2       f2   |f2  a2 |b2 a2   |
%
[V:1]   f>cdA|B/A/G/F/ GA/B/|c>d`cA |G2 F   |]
[V:2]   f2 f2|c2       c2   |f2  f2 |c2 f   |]
W:Transcription (c) Jack Campin 2009, no mirroring or republication without permission

